X:350
T: Humours of Tallow
N: O'Farrell's Pocket Companion v.4 (Sky ed. p.151)
N: "Irish"
M: 6/8
L: 1/8
Q: 320
R: jig
K: Ador
A| EAA ABA/G/| ABd e2f| edB dBA| GBA GED|
EAA ABA/G/| ABd e2f| edB gdB| A3A2 :|
z| eag age| gba b2a| ged edB| dBA GED|
EAA ABA/G/| ABd e2f| gfe dBG| A3A2:|
